; generated by PrusaSlicer 2.5.2 on 2023-05-26 at 20:27:11 UTC


;
;
; Model is onyl a few mm high
; 
; To prevent visible Overextrusion,  set custom Gcode 4 the first few layers:
; ...          ——
; 6.L        M221 S100
; 5.L        M221 S94
; 4.L        M221 S92
; 3.L        M221 S90
; 2.L        M221 S88
; 1.L

; external perimeters extrusion width = 0.45mm
; perimeters extrusion width = 0.45mm
; infill extrusion width = 0.45mm
; solid infill extrusion width = 0.45mm
; top infill extrusion width = 0.40mm
; support material extrusion width = 0.40mm
; first layer extrusion width = 0.48mm

M73 P0 R87
M201 X500 Y500 Z100 E5000 ; sets maximum accelerations, mm/sec^2
M203 X500 Y500 Z10 E60 ; sets maximum feedrates, mm / sec
M204 P500 R1000 T1500 ; sets acceleration (P, T) and retract acceleration (R), mm/sec^2
M205 X8.00 Y8.00 Z0.40 E5.00 ; sets the jerk limits, mm/sec
M205 S0 T0 ; sets the minimum extruding and travel feed rate, mm/sec
M107 ; disable fan
;TYPE:Custom
M106 S61 ; keep Fan on Low
G90 ; use absolute coordinates
M83 ; extruder relative mode
;;;M104 S120 ; set temporary nozzle temp to prevent oozing during homing and auto bed leveling
M104 S235 ; start heating up the nozzle
;M190 S55 ; wait for bed temp to stabilize
G4 S10 ; allow partial nozzle warmup
M140 S60; set bed temp for homing
G28 ; home all axis
M140 S55 ; set printing bed temp
;;;G29 ; auto bed levelling
M420 S1; enable bed leveling
G1 Z30 F240
G1 X2 Y20 F3000
M109 S230 ; start the Print 5°C earlier
M104 S235 ; set final nozzle printing temp
G1 Z0.28 F240
G92 E0
G1 Y200 E10 F1500 ; prime the nozzle
G1 X2.3 F5000
G92 E0
G1 Y20 E10 F1200 ; prime the nozzle
G92 E0
G21 ; set units to millimeters
G90 ; use absolute coordinates
M83 ; use relative distances for extrusion
; Filament gcode
M900 K0.38; set PLA LinearAdvance K-Factor
M900 S0; enable LinearAdvance
M107 ; disable fan
;LAYER_CHANGE
;Z:0.24
;HEIGHT:0.24
;BEFORE_LAYER_CHANGE
G92 E0
M117 INDICATOR-Layer0
;0.24


G1 E-2.7 F3600 ; retract
G1 Z.24 F9000 ; move to next layer (0)
;AFTER_LAYER_CHANGE
;0.24
G1 X91.744 Y91.744 ; move to first skirt point
G1 E2.7 F3600 ;  ; unretract
;TYPE:Skirt/Brim
;WIDTH:0.48
G1 F899.946
G1 X92.459 Y91.03 E.0432; skirt
G1 X94.842 Y89.21 E.12818 ; skirt
G1 X97.619 Y88.082 E.12818; skirt
G1 X100.439 Y87.725 E.12152 ; skirt
G1 X112.14 Y87.725 Z.24 E.50027; skirt
G1 X115.995 Y87.725 Z.24 E.16484
G1 X119.85 Y87.725 Z.24 E.16484
G1 X123.706 Y87.725 Z.24 E.16484
G1 X127.561 Y87.725 Z.24 E.16484
G1 X130.533 Y88.123 E.12818 ; skirt
G1 X133.294 Y89.289 E.12818; skirt
G1 X135.541 Y91.03 E.12152 ; skirt
G1 X138.47 Y93.959 E.1771; skirt
G1 X140.29 Y96.342 E.12818 ; skirt
G1 X141.418 Y99.119 E.12818; skirt
G1 X141.775 Y101.939 E.12152 ; skirt
G1 X141.775 Y113.64 Z.24 E.50027; skirt
G1 X141.775 Y117.495 Z.24 E.16484
G1 X141.775 Y121.35 Z.24 E.16484
G1 X141.775 Y125.206 Z.24 E.16484
G1 X141.775 Y129.061 Z.24 E.16484
G1 X141.377 Y132.033 E.12818 ; skirt
G1 X140.211 Y134.794 E.12818; skirt
G1 X138.47 Y137.041 E.12152 ; skirt
G1 X135.541 Y139.97 E.1771; skirt
G1 X133.158 Y141.79 E.12818 ; skirt
G1 X130.381 Y142.918 E.12818; skirt
G1 X127.561 Y143.275 E.12152 ; skirt
G1 X115.86 Y143.275 Z.24 E.50027; skirt
G1 X112.005 Y143.275 Z.24 E.16484
G1 X108.15 Y143.275 Z.24 E.16484
G1 X104.294 Y143.275 Z.24 E.16484
G1 X100.439 Y143.275 Z.24 E.16484
G1 X97.467 Y142.877 E.12818 ; skirt
G1 X94.706 Y141.711 E.12818; skirt
G1 X92.459 Y139.97 E.12152 ; skirt
G1 X89.53 Y137.041 E.1771; skirt
G1 X87.71 Y134.658 E.12818 ; skirt
G1 X86.582 Y131.881 E.12818; skirt
G1 X86.225 Y129.061 E.12152 ; skirt
G1 X86.225 Y117.36 Z.24 E.50027; skirt
G1 X86.225 Y113.505 Z.24 E.16484
G1 X86.225 Y109.65 Z.24 E.16484
G1 X86.225 Y105.794 Z.24 E.16484
G1 X86.225 Y101.939 Z.24 E.16484
G1 X86.623 Y98.967 E.12818 ; skirt
G1 X87.789 Y96.206 E.12818; skirt
G1 X89.53 Y93.959 E.12152 ; skirt
G1 X91.702 Y91.787 E.13133; skirt
G1 X92.005 Y92.09 F9000 ; move to first skirt point
G1 F900
G1 X92.762 Y91.333 E.04577 ; skirt
G1 F899.724
G1 X95.103 Y89.555 E.12572; skirt
G1 X97.836 Y88.47 E.12572; skirt
G1 X100.439 Y88.153 E.1121 ; skirt
G1 X104.295 Y88.153 Z.24 E.16486; skirt
G1 X108.151 Y88.153 Z.24 E.16486
G1 X112.007 Y88.153 Z.24 E.16486
G1 F900
G1 X127.561 Y88.153 Z.24 E.66503
G1 F899.861
G1 X130.474 Y88.551 E.12572; skirt
G1 X133.174 Y89.716 E.12572 ; skirt
G1 X135.238 Y91.333 E.1121; skirt
G1 X138.167 Y94.262 E.1771; skirt
G1 X139.945 Y96.603 E.12572; skirt
G1 X141.03 Y99.336 E.12572; skirt
G1 X141.347 Y101.939 E.1121 ; skirt
G1 X141.347 Y105.795 Z.24 E.16486; skirt
G1 X141.347 Y109.651 Z.24 E.16486
G1 X141.347 Y113.507 Z.24 E.16486
G1 F900
G1 X141.347 Y129.061 Z.24 E.66503
G1 F899.858
G1 X140.949 Y131.974 E.12572; skirt
G1 X139.784 Y134.674 E.12572 ; skirt
G1 X138.167 Y136.738 E.1121; skirt
G1 X135.238 Y139.667 E.1771; skirt
G1 X132.897 Y141.445 E.12572; skirt
G1 X130.164 Y142.53 E.12572; skirt
G1 X127.561 Y142.847 E.1121 ; skirt
M73 P1 R87
G1 X123.705 Y142.847 Z.24 E.16486; skirt
G1 X119.849 Y142.847 Z.24 E.16486
G1 X115.993 Y142.847 Z.24 E.16486
G1 F900
G1 X100.439 Y142.847 Z.24 E.66503
G1 F899.859
G1 X97.526 Y142.449 E.12572; skirt
G1 X94.826 Y141.284 E.12572 ; skirt
G1 X92.762 Y139.667 E.1121; skirt
G1 X89.833 Y136.738 E.1771; skirt
G1 X88.055 Y134.397 E.12572; skirt
G1 X86.97 Y131.664 E.12572; skirt
G1 X86.653 Y129.061 E.1121 ; skirt
G1 X86.653 Y125.205 Z.24 E.16486; skirt
G1 X86.653 Y121.349 Z.24 E.16486
G1 X86.653 Y117.493 Z.24 E.16486
G1 F900
G1 X86.653 Y101.939 Z.24 E.66503
G1 F899.863
G1 X87.051 Y99.026 E.12572; skirt
G1 X88.216 Y96.326 E.12572 ; skirt
G1 X89.833 Y94.262 E.1121; skirt
G1 X91.963 Y92.132 E.12877 ; skirt
G1 X92.266 Y92.435 F9000 ; move to first skirt point
G1 F899.597
G1 X93.065 Y91.636 E.04833; skirt
G1 X95.364 Y89.899 E.1232 ; skirt
G1 X98.051 Y88.859 E.1232; skirt
G1 X100.439 Y88.582 E.10277 ; skirt
G1 X104.295 Y88.582 Z.24 E.16485; skirt
G1 X108.15 Y88.582 Z.24 E.16485
M73 P1 R86
G1 X112.006 Y88.582 Z.24 E.16485
G1 X127.561 Y88.582 Z.24 E.66506
G1 X130.415 Y88.98 E.1232 ; skirt
G1 X133.051 Y90.143 E.1232; skirt
G1 X134.935 Y91.636 E.10277 ; skirt
G1 X137.864 Y94.565 E.1771; skirt
G1 X139.601 Y96.864 E.1232; skirt
G1 X140.641 Y99.551 E.1232; skirt
G1 X140.918 Y101.939 E.10277 ; skirt
G1 X140.918 Y105.795 Z.24 E.16485; skirt
G1 X140.918 Y109.65 Z.24 E.16486
G1 X140.918 Y113.506 Z.24 E.16485
G1 X140.918 Y129.061 Z.24 E.66506
G1 X140.52 Y131.915 E.1232 ; skirt
G1 X139.357 Y134.551 E.1232; skirt
G1 X137.864 Y136.435 E.10277 ; skirt
G1 X134.935 Y139.364 E.1771; skirt
G1 X132.636 Y141.101 E.1232; skirt
G1 X129.949 Y142.141 E.1232; skirt
G1 X127.561 Y142.418 E.10277 ; skirt
G1 X123.705 Y142.418 Z.24 E.16485; skirt
G1 X119.85 Y142.418 Z.24 E.16485
G1 X115.994 Y142.418 Z.24 E.16485
G1 X100.439 Y142.418 Z.24 E.66506
G1 X97.585 Y142.02 E.1232 ; skirt
G1 X94.949 Y140.857 E.1232; skirt
G1 X93.065 Y139.364 E.10277 ; skirt
G1 X90.136 Y136.435 E.1771; skirt
G1 X88.399 Y134.136 E.1232; skirt
G1 X87.359 Y131.449 E.1232; skirt
G1 X87.082 Y129.061 E.10277 ; skirt
G1 X87.082 Y125.205 Z.24 E.16485; skirt
G1 X87.082 Y121.35 Z.24 E.16485
G1 X87.082 Y117.494 Z.24 E.16485
G1 X87.082 Y101.939 Z.24 E.66506
G1 X87.48 Y99.085 E.1232 ; skirt
G1 X88.643 Y96.449 E.1232; skirt
G1 X90.136 Y94.565 E.10277 ; skirt
G1 X92.223 Y92.478 E.1262; skirt
G1 E-2.7 F3600 ; retract
G1 X99.628 Y100.529 F9000 ; move to first brim point
G1 E2.7 F3600 ;  ; unretract
G1 F900
G1 X100.179 Y100.108 E.02962 ; brim
G1 F899.567
G1 X101.959 Y99.511 E.08027; brim
G1 X105.815 Y99.512 Z.24 E.16488; brim
G1 X109.672 Y99.512 Z.24 E.16488
G1 X113.528 Y99.513 Z.24 E.16489
G1 F900
G1 X126 Y99.515 Z.24 E.53323
G1 F899.435
G1 X126.905 Y99.698 E.0395; brim
G1 X127.749 Y100.07 E.03943; brim
G1 X128.933 Y101.085 E.06666 ; brim
G1 X129.652 Y102.203 E.05686; brim
G1 X129.989 Y103.484 E.05664; brim
G1 X129.989 Y127.516 E1.02746 ; brim
G1 X129.68 Y128.732 E.05366; brim
G1 X129.002 Y129.841 E.05557 ; brim
G1 F898.886
G1 X128.372 Y130.471 E.03812; brim
G1 X127.821 Y130.892 E.02962 ; brim
G1 F899.231
G1 X126.042 Y131.489 E.08026; brim
G1 X101.984 Y131.489 E1.02858 ; brim
G1 X100.768 Y131.18 E.05366; brim
G1 X99.659 Y130.502 E.05557 ; brim
G1 F898.897
G1 X99.029 Y129.872 E.03812; brim
G1 X98.608 Y129.321 E.02962 ; brim
G1 F899.234
G1 X98.011 Y127.542 E.08026; brim
G1 X98.011 Y103.484 E1.02858 ; brim
G1 X98.32 Y102.268 E.05366; brim
G1 X98.998 Y101.159 E.05557; brim
G1 X99.586 Y100.571 E.03555 ; brim
G1 X99.889 Y100.874 F9000 ; move to first brim point
G1 F899.906
G1 X100.41 Y100.47 E.02819; brim
G1 X101.993 Y99.939 E.07141; brim
G1 F900
G1 X110.557 Y99.94 Z.24 E.36614; brim
G1 F899.96
G1 X114.412 Y99.941 Z.24 E.16483
G1 X118.267 Y99.942 Z.24 E.16483
G1 X122.122 Y99.942 Z.24 E.16483
G1 X125.977 Y99.943 Z.24 E.16483
G1 X126.795 Y100.112 E.0357 ; brim
G1 X127.545 Y100.447 E.03511; brim
G1 X128.629 Y101.388 E.06137; brim
G1 X129.247 Y102.347 E.0488; brim
G1 X129.561 Y103.513 E.05162 ; brim
G1 X129.561 Y107.369 Z.24 E.16485; brim
G1 X129.561 Y111.225 Z.24 E.16485
G1 X129.561 Y115.08 Z.24 E.16485
G1 F900
G1 X129.561 Y127.488 Z.24 E.53048
G1 F899.601
G1 X129.273 Y128.592 E.0488; brim
G1 X128.681 Y129.555 E.04833; brim
G1 X128.079 Y130.158 E.03642 ; brim
G1 X127.59 Y130.53 E.02627; brim
G1 X126.007 Y131.061 E.07139; brim
G1 X102.012 Y131.061 E1.0259 ; brim
G1 X100.908 Y130.773 E.0488; brim
G1 X99.945 Y130.181 E.04833; brim
G1 X99.342 Y129.579 E.03642 ; brim
G1 X98.97 Y129.09 E.02627; brim
G1 X98.439 Y127.507 E.07139; brim
G1 X98.439 Y103.512 E1.0259 ; brim
G1 X98.727 Y102.408 E.0488; brim
G1 X99.319 Y101.445 E.04833 ; brim
G1 F898.919
G1 X99.846 Y100.917 E.03192; brim
G1 X100.149 Y101.22 F9000 ; move to first brim point
G1 F900
G1 X100.64 Y100.833 E.02671 ; brim
G1 F899.72
G1 X102.028 Y100.368 E.06258; brim
G1 X105.884 Y100.369 Z.24 E.16486; brim
G1 X109.74 Y100.369 Z.24 E.16487
G1 X113.596 Y100.37 Z.24 E.16486
G1 F900
G1 X125.956 Y100.372 Z.24 E.52843
G1 F898.394
G1 X126.641 Y100.513 E.02994; brim
G1 X127.34 Y100.825 E.0327 ; brim
G1 F899.209
G1 X128.322 Y101.688 E.05592; brim
G1 X128.867 Y102.548 E.04353; brim
G1 X129.132 Y103.541 E.04393 ; brim
G1 X129.132 Y112.045 Z.24 E.36359; brim
G1 X129.132 Y115.898 Z.24 E.16476
G1 X129.132 Y119.752 Z.24 E.16476
G1 X129.132 Y123.605 Z.24 E.16476
G1 X129.132 Y127.459 Z.24 E.16476
G1 X128.868 Y128.451 E.04387 ; brim
G1 X128.361 Y129.27 E.04118; brim
G1 X127.787 Y129.844 E.03473; brim
G1 X127.36 Y130.167 E.02289; brim
G1 X125.972 Y130.632 E.06257 ; brim
G1 X117.455 Y130.632 Z.24 E.36415; brim
G1 X113.602 Y130.632 Z.24 E.16476
G1 X109.748 Y130.632 Z.24 E.16476
G1 X105.895 Y130.632 Z.24 E.16476
G1 X102.041 Y130.632 Z.24 E.16476
G1 X101.049 Y130.368 E.04387 ; brim
G1 X100.23 Y129.861 E.04118; brim
G1 X99.656 Y129.287 E.03473; brim
G1 X99.333 Y128.86 E.02289; brim
G1 X98.868 Y127.472 E.06257 ; brim
G1 X98.868 Y118.955 Z.24 E.36415; brim
G1 X98.868 Y115.102 Z.24 E.16476
G1 X98.868 Y111.248 Z.24 E.16476
G1 X98.868 Y107.395 Z.24 E.16476
G1 X98.868 Y103.541 Z.24 E.16476
G1 X99.132 Y102.549 E.04387 ; brim
G1 X99.639 Y101.73 E.04118; brim
G1 X100.107 Y101.262 E.02831; brim
G1 X100.41 Y101.565 F9000 ; move to first brim point
G1 F899.023
G1 X100.505 Y101.47 E.00575; brim
G1 X100.87 Y101.197 E.01947 ; brim
G1 X102.063 Y100.796 E.05381; brim
G1 X110.509 Y100.797 Z.24 E.36114; brim
G1 X114.365 Y100.798 Z.24 E.16486
G1 X118.221 Y100.799 Z.24 E.16486
G1 X122.076 Y100.799 Z.24 E.16486
G1 X125.932 Y100.8 Z.24 E.16486
G1 X126.528 Y100.927 E.02605; brim
G1 X127.132 Y101.201 E.02834 ; brim
G1 X128.015 Y101.988 E.05057; brim
G1 X128.463 Y102.693 E.03573; brim
G1 X128.704 Y103.57 E.03889; brim
G1 X128.704 Y127.43 E1.02011 ; brim
G1 X128.463 Y128.306 E.03887; brim
G1 X128.041 Y128.984 E.03413 ; brim
G1 F898.93
G1 X127.495 Y129.53 E.03303; brim
G1 X127.13 Y129.803 E.01947 ; brim
G1 F899.697
G1 X125.937 Y130.204 E.0538; brim
G1 X122.081 Y130.204 Z.24 E.16484; brim
G1 X118.226 Y130.204 Z.24 E.16484
G1 X114.37 Y130.204 Z.24 E.16484
G1 F900
G1 X102.07 Y130.204 Z.24 E.52591
G1 F899.193
G1 X101.194 Y129.963 E.03887; brim
G1 X100.516 Y129.541 E.03413 ; brim
G1 F898.934
G1 X99.97 Y128.995 E.03303; brim
G1 X99.697 Y128.63 E.01947 ; brim
G1 F899.708
G1 X99.296 Y127.437 E.0538; brim
G1 X99.296 Y123.581 Z.24 E.16484; brim
G1 X99.296 Y119.726 Z.24 E.16484
G1 X99.296 Y115.87 Z.24 E.16484
G1 F900
G1 X99.296 Y103.57 Z.24 E.52591
G1 F899.195
G1 X99.537 Y102.694 E.03887; brim
G1 X99.959 Y102.016 E.03413; brim
G1 X100.368 Y101.607 E.02471 ; brim
G1 X100.671 Y101.91 F9000 ; move to first brim point
G1 F899.462
G1 X100.797 Y101.784 E.00762; brim
G1 X101.098 Y101.561 E.01602; brim
G1 X102.098 Y101.225 E.04511; brim
G1 F900
G1 X110.494 Y101.226 Z.24 E.35897; brim
G1 F899.913
G1 X114.347 Y101.227 Z.24 E.16477
G1 X118.201 Y101.228 Z.24 E.16477
G1 X122.054 Y101.228 Z.24 E.16476
G1 X125.908 Y101.229 Z.24 E.16477
G1 X126.412 Y101.34 E.02205 ; brim
G1 X126.921 Y101.576 E.02398; brim
G1 X127.706 Y102.286 E.04525; brim
G1 F898.99
G1 X128.06 Y102.841 E.02817; brim
G1 X128.275 Y103.601 E.03376 ; brim
G1 F899.784
G1 X128.275 Y107.456 Z.24 E.16484; brim
G1 X128.275 Y111.312 Z.24 E.16484
G1 X128.275 Y115.167 Z.24 E.16484
M73 P2 R86
G1 F900
G1 X128.275 Y127.399 Z.24 E.52298
G1 F899.971
G1 X128.06 Y128.159 E.03377; brim
G1 X127.721 Y128.697 E.0272; brim
G1 X127.203 Y129.216 E.03133 ; brim
G1 X126.902 Y129.439 E.01602; brim
G1 X125.903 Y129.775 E.0451; brim
G1 X102.101 Y129.775 E1.01765 ; brim
G1 X101.341 Y129.56 E.03377; brim
G1 X100.803 Y129.221 E.0272; brim
G1 X100.284 Y128.703 E.03133 ; brim
G1 X100.061 Y128.402 E.01602; brim
G1 X99.725 Y127.403 E.0451; brim
G1 X99.725 Y103.601 E1.01765 ; brim
G1 X99.94 Y102.841 E.03377; brim
G1 X100.279 Y102.303 E.0272; brim
G1 F898.278
G1 X100.628 Y101.953 E.02114; brim
G1 X100.931 Y102.256 F9000 ; move to first brim point
G1 F900
G1 X101.088 Y102.099 E.00946 ; brim
G1 F896.823
G1 X101.324 Y101.926 E.01253; brim
G1 X102.133 Y101.653 E.03649 ; brim
G1 F899.684
G1 X105.988 Y101.654 Z.24 E.16482; brim
G1 X109.843 Y101.654 Z.24 E.16482
G1 X113.698 Y101.655 Z.24 E.16482
G1 F900
G1 X125.883 Y101.657 Z.24 E.52099
G1 F898.808
G1 X126.291 Y101.752 E.01793; brim
G1 X126.707 Y101.948 E.01965 ; brim
G1 F899.938
G1 X127.395 Y102.582 E.03998; brim
G1 X127.658 Y102.993 E.02087; brim
G1 X127.847 Y103.633 E.02853 ; brim
G1 X127.847 Y111.955 Z.24 E.35582; brim
G1 X127.847 Y115.808 Z.24 E.16474
G1 X127.847 Y119.661 Z.24 E.16474
G1 X127.847 Y123.514 Z.24 E.16474
G1 X127.847 Y127.367 Z.24 E.16474
G1 X127.658 Y128.008 E.02855 ; brim
G1 X127.402 Y128.411 E.02042; brim
G1 X126.912 Y128.901 E.02962 ; brim
G1 F898.627
G1 X126.676 Y129.074 E.01253; brim
G1 F899.813
G1 X125.868 Y129.347 E.03648; brim
G1 F900
G1 X117.546 Y129.347 Z.24 E.3558; brim
G1 F899.908
G1 X113.693 Y129.347 Z.24 E.16475
G1 X109.84 Y129.347 Z.24 E.16475
G1 X105.986 Y129.347 Z.24 E.16475
G1 X102.133 Y129.347 Z.24 E.16475
G1 X101.492 Y129.158 E.02855 ; brim
G1 X101.089 Y128.902 E.02042; brim
G1 X100.599 Y128.412 E.02962 ; brim
G1 F898.641
G1 X100.426 Y128.176 E.01253; brim
G1 F899.81
G1 X100.153 Y127.368 E.03648; brim
G1 F900
G1 X100.153 Y119.046 Z.24 E.35581; brim
G1 F899.907
G1 X100.153 Y115.193 Z.24 E.16475
G1 X100.153 Y111.339 Z.24 E.16475
G1 X100.153 Y107.486 Z.24 E.16475
G1 X100.153 Y103.633 Z.24 E.16475
G1 X100.342 Y102.992 E.02855 ; brim
G1 X100.598 Y102.589 E.02042; brim
G1 X100.889 Y102.298 E.01759 ; brim
G1 X101.192 Y102.601 F9000 ; move to first brim point
G1 F898.531
G1 X101.378 Y102.415 E.01126; brim
G1 X101.548 Y102.292 E.00897 ; brim
G1 F899.833
G1 X102.168 Y102.082 E.02799; brim
G1 F900
G1 X110.454 Y102.083 Z.24 E.35426; brim
G1 F899.841
G1 X114.305 Y102.084 Z.24 E.16466
G1 X118.156 Y102.085 Z.24 E.16466
G1 X122.007 Y102.085 Z.24 E.16465
G1 F898.732
G1 X125.858 Y102.086 Z.24 E.16466
G1 X126.129 Y102.149 E.01188 ; brim
G1 X126.492 Y102.321 E.01719; brim
G1 F899.928
G1 X127.082 Y102.875 E.0346; brim
G1 X127.258 Y103.149 E.01392 ; brim
G1 F898.629
G1 X127.418 Y103.666 E.02317; brim
G1 F900
G1 X127.418 Y111.909 Z.24 E.35243; brim
G1 F899.996
M73 P2 R85
G1 X127.418 Y115.765 Z.24 E.16487
